X:234
T:Michael Kennedy's
Z: id:dc-reel-215
M:C
L:1/8
K:A Dorian
eg|a3g edBd|ea2g e2d2|ea2b agef|gedB G2:|!
Bd|eAAB cBAe|aAAG ABcd|eAAB cBAf|gedB G2:|!